public/avatar/hat/167.svg

<svg xmlns:xlink="http://www.w3.org/1999/xlink" height="92.9" width="100.7" xmlns="http://www.w3.org/2000/svg"><g transform="translate(38.65 49.75)"><use height="27.9" transform="matrix(-.8919 0 0 .8919 18.043 -18.692)" width="13.95" xlink:href="#a"/><use height="27.9" transform="translate(-18.493 -17.942) scale(.8919)" width="13.95" xlink:href="#a"/><use height="19.05" transform="translate(-7.253 -11.245) scale(.8919)" width="16.75" xlink:href="#b"/></g><defs><use height="27.9" width="13.95" xlink:href="#c" id="a"/><use height="19.05" width="16.75" xlink:href="#d" id="b"/><g id="c"><path d="M4.15 12.75q-.6-6.05-2.5-11.7Q.05-3.7-3.1-7.7l-1.6.05q-.75.55-.95 2.35-.2 1.8-.45 2.45l-.3-.6q-.5-4.95 2.3-8.95l.75-1.05q5.25 2.2 6.05 8.1.8 5.85 1.9 9.8l1.85 7.15q-.4.2-1.25.7l-1.05.45" fill="#fcc" fill-rule="evenodd" transform="translate(7 13.95)"/><path d="M-6.1-2.85q.25-.65.45-2.45.2-1.8.95-2.35l1.6-.05q3.15 4 4.75 8.75 1.9 5.65 2.5 11.7l-1.85.7q-2.2-3.2-4-6.9l-4.4-9.4" fill="#fff" fill-rule="evenodd" transform="translate(7 13.95)"/><path d="M6.45 11.6 4.6 4.45Q3.5.5 2.7-5.35q-.8-5.9-6.05-8.1l-.75 1.05q-2.8 4-2.3 8.95l.3.6 4.4 9.4q1.8 3.7 4 6.9" fill="none" stroke="#f66" stroke-linecap="round" stroke-linejoin="round" transform="translate(7 13.95)"/></g><g id="d" fill-rule="evenodd"><path d="M-7.5 5.85V-1.5q-.2-1.7.8-3.15 1-1.5 1.9-.6l2.3 2.75 1-2 1-2q1.5.15 2 1l.6 1.6.4-.6q1.35-1.8 3-2 .8-.1 1 2L6.7.75l-.1 5.1q-7.55-5.9-14.1 0" fill="#6f2d00" transform="translate(8.3 9.3)"/><path d="M-7.5 5.85q6.55-5.9 14.1 0L6.35 7.8q-.2 1.55-5.2 1.9-5 .35-6.85-1.05-1.85-1.4-1.8-2.8" fill="#c64f00" transform="translate(8.3 9.3)"/><path d="M5.7-4.8 5.6-.05q-.1 1.75-.05 3.5l-.75.2q-1.7.75-3.7.8l-3.85-.2Q-4.75 4-6.4 3v-.45Q-6.35.6-6.45-1.3q-.1-1.85.75-2.7 1.85.95 2.85 2.65.3.5.85 2.4.25-3.7 1.65-5.65L0-5.3q1.15 1.65 1.75 6.35.7-4.6 3.15-5.95l.45-.25.2.25.15.1M5.6 5.55 5.5 6.8q-.25.65-1 .95-1.6.65-3.6.85L-3 8.4Q-5.05 8-6.5 6.8l.05-1.55Q-4.7 6.1-3 6.4l3.5.3 3.8-.4 1.3-.75" fill="url(#e)" transform="translate(8.3 9.3)"/><path d="m5.7-4.8-.15-.1-.2-.25.35.35" fill="#f90" transform="translate(8.3 9.3)"/><path d="M-6.4 3q1.65 1 3.65 1.25l3.85.2q2-.05 3.7-.8l.75-.2.05 2.1-1.3.75-3.8.4-3.5-.3q-1.7-.3-3.45-1.15L-6.4 3" fill="#f60" transform="translate(8.3 9.3)"/><path d="M-4.35-4.05q-.65.7-1.7.7-.95 0-1.6-.7-.65-.65-.65-1.65 0-1 .65-1.65Q-7-8-6.05-8q1.05 0 1.7.65.65.65.65 1.65 0 1-.65 1.65M1.8-5.2q-.7.7-1.75.7-1 0-1.7-.7-.7-.65-.7-1.75 0-1 .7-1.7.7-.65 1.7-.65 1.05 0 1.75.65.7.7.7 1.7 0 1.1-.7 1.75m6 .4q-.65.7-1.7.7-.95 0-1.6-.7-.65-.65-.65-1.65 0-1 .65-1.65.65-.65 1.6-.65 1.05 0 1.7.65.65.65.65 1.65 0 1-.65 1.65" fill="#6f2d00" transform="translate(8.3 9.3)"/><path d="M-4.9-4.55q-.45.45-1.15.45-.65 0-1.1-.45Q-7.6-5-7.6-5.7l.45-1.1q.45-.45 1.1-.45.7 0 1.15.45.45.45.45 1.1 0 .7-.45 1.15M1.2-5.8q-.45.45-1.15.45-.65 0-1.1-.45-.45-.45-.45-1.15 0-.65.45-1.1l1.1-.45q.7 0 1.15.45.45.45.45 1.1 0 .7-.45 1.15m6.05.5q-.45.45-1.15.45-.65 0-1.1-.45-.45-.45-.45-1.15 0-.65.45-1.1Q5.45-8 6.1-8q.7 0 1.15.45.45.45.45 1.1 0 .7-.45 1.15" fill="#f60" transform="translate(8.3 9.3)"/></g><linearGradient gradientTransform="matrix(.0074 0 0 .006 -.35 -.45)" gradientUnits="userSpaceOnUse" id="e" spreadMethod="pad" x1="-819.2" x2="819.2"><stop offset="0" stop-color="#f90"/><stop offset=".475" stop-color="#ff3"/><stop offset="1" stop-color="#f90"/></linearGradient></defs></svg>

<?xml version="1.0" encoding="UTF-8" standalone="no"?>
<svg xmlns:xlink="http://www.w3.org/1999/xlink" height="92.9px" width="100.7px" xmlns="http://www.w3.org/2000/svg">
  <g transform="matrix(1.0, 0.0, 0.0, 1.0, 38.65, 49.75)">
    <use height="27.9" transform="matrix(-0.8919, 0.0, 0.0, 0.8919, 18.0432, -18.6919)" width="13.95" xlink:href="#sprite0"/>
    <use height="27.9" transform="matrix(0.8919, 0.0, 0.0, 0.8919, -18.4932, -17.9419)" width="13.95" xlink:href="#sprite0"/>
    <use height="19.05" transform="matrix(0.8919, 0.0, 0.0, 0.8919, -7.2527, -11.2446)" width="16.75" xlink:href="#sprite1"/>
  </g>
  <defs>
    <g id="sprite0" transform="matrix(1.0, 0.0, 0.0, 1.0, 7.0, 13.95)">
      <use height="27.9" transform="matrix(1.0, 0.0, 0.0, 1.0, -7.0, -13.95)" width="13.95" xlink:href="#shape0"/>
    </g>
    <g id="shape0" transform="matrix(1.0, 0.0, 0.0, 1.0, 7.0, 13.95)">
      <path d="M4.15 12.75 Q3.55 6.7 1.65 1.05 0.05 -3.7 -3.1 -7.7 L-4.7 -7.65 Q-5.45 -7.1 -5.65 -5.3 -5.85 -3.5 -6.1 -2.85 L-6.4 -3.45 Q-6.9 -8.4 -4.1 -12.4 L-3.35 -13.45 Q1.9 -11.25 2.7 -5.35 3.5 0.5 4.6 4.45 L6.45 11.6 Q6.05 11.8 5.2 12.3 L4.15 12.75" fill="#ffcccc" fill-rule="evenodd" stroke="none"/>
      <path d="M-6.1 -2.85 Q-5.85 -3.5 -5.65 -5.3 -5.45 -7.1 -4.7 -7.65 L-3.1 -7.7 Q0.05 -3.7 1.65 1.05 3.55 6.7 4.15 12.75 L2.3 13.45 Q0.1 10.25 -1.7 6.55 L-6.1 -2.85" fill="#ffffff" fill-rule="evenodd" stroke="none"/>
      <path d="M6.45 11.6 L4.6 4.45 Q3.5 0.5 2.7 -5.35 1.9 -11.25 -3.35 -13.45 L-4.1 -12.4 Q-6.9 -8.4 -6.4 -3.45 L-6.1 -2.85 -1.7 6.55 Q0.1 10.25 2.3 13.45" fill="none" stroke="#ff6666" stroke-linecap="round" stroke-linejoin="round" stroke-width="1.0"/>
    </g>
    <g id="sprite1" transform="matrix(1.0, 0.0, 0.0, 1.0, 8.3, 9.3)">
      <use height="19.05" transform="matrix(1.0, 0.0, 0.0, 1.0, -8.3, -9.3)" width="16.75" xlink:href="#shape1"/>
    </g>
    <g id="shape1" transform="matrix(1.0, 0.0, 0.0, 1.0, 8.3, 9.3)">
      <path d="M-7.5 5.85 L-7.5 5.7 -7.5 3.45 -7.5 -1.5 Q-7.7 -3.2 -6.7 -4.65 -5.7 -6.15 -4.8 -5.25 L-2.5 -2.5 -1.5 -4.5 -0.5 -6.5 Q1.0 -6.35 1.5 -5.5 L2.1 -3.9 2.5 -4.5 Q3.85 -6.3 5.5 -6.5 6.3 -6.6 6.5 -4.5 L6.7 0.75 6.6 5.85 Q-0.95 -0.05 -7.5 5.85" fill="#6f2d00" fill-rule="evenodd" stroke="none"/>
      <path d="M-7.5 5.85 Q-0.95 -0.05 6.6 5.85 L6.35 7.8 Q6.15 9.35 1.15 9.7 -3.85 10.05 -5.7 8.65 -7.55 7.25 -7.5 5.85" fill="#c64f00" fill-rule="evenodd" stroke="none"/>
      <path d="M5.7 -4.8 L5.6 -0.05 Q5.5 1.7 5.55 3.45 L4.8 3.65 Q3.1 4.4 1.1 4.45 L-2.75 4.25 Q-4.75 4.0 -6.4 3.0 L-6.4 2.55 Q-6.35 0.6 -6.45 -1.3 -6.55 -3.15 -5.7 -4.0 -3.85 -3.05 -2.85 -1.35 -2.55 -0.85 -2.0 1.05 -1.75 -2.65 -0.35 -4.6 L0.0 -5.3 Q1.15 -3.65 1.75 1.05 2.45 -3.55 4.9 -4.9 L5.35 -5.15 5.55 -4.9 5.7 -4.8 M5.6 5.55 L5.5 6.8 Q5.25 7.45 4.5 7.75 2.9 8.4 0.9 8.6 L-3.0 8.4 Q-5.05 8.0 -6.5 6.8 L-6.45 5.25 Q-4.7 6.1 -3.0 6.4 L0.5 6.7 4.3 6.3 5.6 5.55" fill="url(#gradient0)" fill-rule="evenodd" stroke="none"/>
      <path d="M5.7 -4.8 L5.55 -4.9 5.35 -5.15 5.7 -4.8" fill="#ff9900" fill-rule="evenodd" stroke="none"/>
      <path d="M-6.4 3.0 Q-4.75 4.0 -2.75 4.25 L1.1 4.45 Q3.1 4.4 4.8 3.65 L5.55 3.45 5.6 5.55 4.3 6.3 0.5 6.7 -3.0 6.4 Q-4.7 6.1 -6.45 5.25 L-6.4 3.0" fill="#ff6600" fill-rule="evenodd" stroke="none"/>
      <path d="M-4.35 -4.05 Q-5.0 -3.35 -6.05 -3.35 -7.0 -3.35 -7.65 -4.05 -8.3 -4.7 -8.3 -5.7 -8.3 -6.7 -7.65 -7.35 -7.0 -8.0 -6.05 -8.0 -5.0 -8.0 -4.35 -7.35 -3.7 -6.7 -3.7 -5.7 -3.7 -4.7 -4.35 -4.05" fill="#6f2d00" fill-rule="evenodd" stroke="none"/>
      <path d="M1.8 -5.2 Q1.1 -4.5 0.05 -4.5 -0.95 -4.5 -1.65 -5.2 -2.35 -5.85 -2.35 -6.95 -2.35 -7.95 -1.65 -8.65 -0.95 -9.3 0.05 -9.3 1.1 -9.3 1.8 -8.65 2.5 -7.95 2.5 -6.95 2.5 -5.85 1.8 -5.2" fill="#6f2d00" fill-rule="evenodd" stroke="none"/>
      <path d="M7.8 -4.8 Q7.15 -4.1 6.1 -4.1 5.15 -4.1 4.5 -4.8 3.85 -5.45 3.85 -6.45 3.85 -7.45 4.5 -8.1 5.15 -8.75 6.1 -8.75 7.15 -8.75 7.8 -8.1 8.45 -7.45 8.45 -6.45 8.45 -5.45 7.8 -4.8" fill="#6f2d00" fill-rule="evenodd" stroke="none"/>
      <path d="M-4.9 -4.55 Q-5.35 -4.1 -6.05 -4.1 -6.7 -4.1 -7.15 -4.55 -7.6 -5.0 -7.6 -5.7 L-7.15 -6.8 Q-6.7 -7.25 -6.05 -7.25 -5.35 -7.25 -4.9 -6.8 -4.45 -6.35 -4.45 -5.7 -4.45 -5.0 -4.9 -4.55" fill="#ff6600" fill-rule="evenodd" stroke="none"/>
      <path d="M1.2 -5.8 Q0.75 -5.35 0.05 -5.35 -0.6 -5.35 -1.05 -5.8 -1.5 -6.25 -1.5 -6.95 -1.5 -7.6 -1.05 -8.05 L0.05 -8.5 Q0.75 -8.5 1.2 -8.05 1.65 -7.6 1.65 -6.95 1.65 -6.25 1.2 -5.8" fill="#ff6600" fill-rule="evenodd" stroke="none"/>
      <path d="M7.25 -5.3 Q6.8 -4.85 6.1 -4.85 5.45 -4.85 5.0 -5.3 4.55 -5.75 4.55 -6.45 4.55 -7.1 5.0 -7.55 5.45 -8.0 6.1 -8.0 6.8 -8.0 7.25 -7.55 7.7 -7.1 7.7 -6.45 7.7 -5.75 7.25 -5.3" fill="#ff6600" fill-rule="evenodd" stroke="none"/>
    </g>
    <linearGradient gradientTransform="matrix(0.0074, 0.0, 0.0, 0.006, -0.35, -0.45)" gradientUnits="userSpaceOnUse" id="gradient0" spreadMethod="pad" x1="-819.2" x2="819.2">
      <stop offset="0.0" stop-color="#ff9900"/>
      <stop offset="0.4745098039215686" stop-color="#ffff33"/>
      <stop offset="1.0" stop-color="#ff9900"/>
    </linearGradient>
  </defs>
</svg>
